X:328
T:My Lovely Irish Boy
B:Joyce, P. W.; "Old Irish Folk Music and Songs"
R:song
H:Popular in and around Ballycastle in Antrim, about 1850.
A:Antrim
O:Irish
W:Once I was courting a lovely Irish boy,
W:HE called me his honey and he said I was his joy;
W:He talked to me of love and he promised me to wed;
W:But when he found my money gone my lovely boy fled.
L:1/8
M:C
K:Eb
A2 Ac BG EG|F2 E>E E3 z|B2 cd e2 dc|Bc BA G2 z E|
GB cd e2 dc|Bc BA G2 FE|A2 Ac BG EG|F2 E>E E3 z||

